X:1
T: Jig Kerr's 2nd #250
C:Carl Volti
R:Jig
Q:180
K:G
M:6/8
L:1/16
|:f4G2 B2A2G2|d2B2G2 g2f2e2|d4G2 B2A2G2|A2B2G2 F2E2D2|
f4G2 B2A2G2|d2B2G2 g2f2e2|d2e2f2 g2e2c2|B2c2A2 G6:|
|:D2E2D2 G2A2B2|A2G2A2 B2G2E2|D2E2D2 G2A2B2|A2G2A2 B6|
D2E2D2 G2A2B2|A2G2A2 B2G2B2|d2e2f2 g2e2c2|B2c2A2 G6:|
